styles/3/Numix/128/places/orange-folder-pictures.svg

<?xml version="1.0" encoding="UTF-8" standalone="no"?>
<!-- Created with Inkscape (http://www.inkscape.org/) -->

<svg
   xmlns:dc="http://purl.org/dc/elements/1.1/"
   xmlns:cc="http://creativecommons.org/ns#"
   xmlns:rdf="http://www.w3.org/1999/02/22-rdf-syntax-ns#"
   xmlns:svg="http://www.w3.org/2000/svg"
   xmlns="http://www.w3.org/2000/svg"
   xmlns:sodipodi="http://sodipodi.sourceforge.net/DTD/sodipodi-0.dtd"
   xmlns:inkscape="http://www.inkscape.org/namespaces/inkscape"
   width="128"
   height="128"
   id="svg2"
   version="1.1"
   inkscape:version="0.91 r"
   sodipodi:docname="orange-folder-pictures.svg"
   inkscape:export-filename="/media/Data/Main/Visuals/Icons/Numix/Desktop/repos/numix-wiki/Gjorgi/Numix-folders/48/New/folder-144.png"
   inkscape:export-xdpi="270"
   inkscape:export-ydpi="270">
  <defs
     id="defs4" />
  <sodipodi:namedview
     id="base"
     pagecolor="#ffffff"
     bordercolor="#666666"
     borderopacity="1.0"
     inkscape:pageopacity="0.0"
     inkscape:pageshadow="2"
     inkscape:zoom="4.9170839"
     inkscape:cx="35.603449"
     inkscape:cy="50.897382"
     inkscape:document-units="px"
     inkscape:current-layer="layer1"
     showgrid="true"
     inkscape:window-width="1280"
     inkscape:window-height="998"
     inkscape:window-x="0"
     inkscape:window-y="0"
     inkscape:window-maximized="1"
     showguides="true"
     inkscape:guide-bbox="true">
    <inkscape:grid
       type="xygrid"
       id="grid2985"
       empspacing="5"
       visible="true"
       enabled="true"
       snapvisiblegridlinesonly="true" />
  </sodipodi:namedview>
  <metadata
     id="metadata7">
    <rdf:RDF>
      <cc:Work
         rdf:about="">
        <dc:format>image/svg+xml</dc:format>
        <dc:type
           rdf:resource="http://purl.org/dc/dcmitype/StillImage" />
        <dc:title />
      </cc:Work>
    </rdf:RDF>
  </metadata>
  <g
     inkscape:label="Layer 1"
     inkscape:groupmode="layer"
     id="layer1"
     transform="translate(0,-924.3622)">
    <path
       inkscape:connector-curvature="0"
       id="path5"
       d="m 12,948.3622 104,0 0,40 -104,0 z m 0,0"
       style="fill:#e65100;fill-opacity:1;fill-rule:nonzero;stroke:none" />
    <path
       inkscape:connector-curvature="0"
       id="path7"
       d="m 24,948.3622 c 0,-4 0,-8 5.81641,-8 l 20.36719,0 c 5.8164,0 5.8164,4 5.8164,8 l 0,4 -32,0 z m 0,0"
       style="fill:#e65100;fill-opacity:1;fill-rule:nonzero;stroke:none" />
    <path
       inkscape:connector-curvature="0"
       id="path9"
       d="m 20,956.3622 88,0 0,19.8711 -88,0 z m 0,0"
       style="fill:#94979e;fill-opacity:1;fill-rule:nonzero;stroke:none" />
    <path
       inkscape:connector-curvature="0"
       id="path11"
       d="m 28,952.3622 76,0 0,52 -76,0 z m 0,0"
       style="fill:#d7d7d9;fill-opacity:1;fill-rule:nonzero;stroke:none" />
    <path
       inkscape:connector-curvature="0"
       id="path13"
       d="m 24,960.3622 76,0 0,52 -76,0 z m 0,0"
       style="fill:#f8f8f8;fill-opacity:1;fill-rule:nonzero;stroke:none" />
    <path
       inkscape:connector-curvature="0"
       id="path15"
       d="m 4,964.3622 120,0 -8.57031,72 -102.85937,0 z m 0,0"
       style="fill:#f57c00;fill-opacity:1;fill-rule:nonzero;stroke:none" />
    <path
       style="opacity:1.0;fill:#ab5d0b;fill-opacity:1;fill-rule:evenodd"
       d="M 44 48 C 39.568 48 36 51.568 36 56 L 36 84 L 36 96 C 36 100.432 39.568 104 44 104 L 80 104 L 84 104 C 88.432 104 92 100.432 92 96 L 92 56 C 92 51.568 88.432 48 84 48 L 44 48 z M 44 56 L 84 56 L 84 84.4375 L 74 70 L 65.125 78.71875 L 52 64 L 44 74 L 44 56 z "
       transform="translate(0,924.3622)"
       id="path14" />
  </g>
</svg>

<!-- Created with Inkscape (http://www.inkscape.org/) -->
<svg xmlns="http://www.w3.org/2000/svg" viewBox="0 0 128 128">
 <g transform="translate(0,-924.3622)">
  <path d="m 12 948.36 104 0 0 40 -104 0 z m 0 0" style="fill:#e65100;fill-opacity:1;stroke:none;fill-rule:nonzero"/>
  <path d="m 24 948.36 c 0 -4 0 -8 5.816 -8 l 20.367 0 c 5.816 0 5.816 4 5.816 8 l 0 4 -32 0 z m 0 0" style="fill:#e65100;fill-opacity:1;stroke:none;fill-rule:nonzero"/>
  <path d="m 20 956.36 88 0 0 19.871 -88 0 z m 0 0" style="fill:#94979e;fill-opacity:1;stroke:none;fill-rule:nonzero"/>
  <path d="m 28 952.36 76 0 0 52 -76 0 z m 0 0" style="fill:#d7d7d9;fill-opacity:1;stroke:none;fill-rule:nonzero"/>
  <path d="m 24 960.36 76 0 0 52 -76 0 z m 0 0" style="fill:#f8f8f8;fill-opacity:1;stroke:none;fill-rule:nonzero"/>
  <path d="m 4 964.36 120 0 -8.57 72 -102.86 0 z m 0 0" style="fill:#f57c00;fill-opacity:1;stroke:none;fill-rule:nonzero"/>
  <path d="m 44 48 c -4.432 0 -8 3.568 -8 8 l 0 28 l 0 12 c 0 4.432 3.568 8 8 8 l 36 0 l 4 0 c 4.432 0 8 -3.568 8 -8 l 0 -40 c 0 -4.432 -3.568 -8 -8 -8 l -40 0 z m 0 8 l 40 0 l 0 28.438 l -10 -14.438 l -8.875 8.719 l -13.12 -14.719 l -8 10 l 0 -18 z" transform="translate(0,924.3622)" style="fill:#ab5d0b;opacity:1;fill-opacity:1;fill-rule:evenodd"/>
 </g>
</svg>
